X: 12
M:2/4
L:1/16
K:Bb
vfd|B,DFB dBFD|CEAc ecAF|B,DFB DFBd|(3cdc (3BAG (3FGF (3EDC|
|:((3ufga)|bfdf gfdf|bfdf gfdf|edgf edcB|AcBG Fedc|


